public/moon-star.svg

<svg width="24" height="24" viewBox="0 0 24 24" fill="none" xmlns="http://www.w3.org/2000/svg">
  <path d="M12 3C10.9173 4.08272 10.3334 5.5663 10.3334 7.13329C10.3334 8.70029 10.9173 10.1839 12 11.2666C13.0828 12.3493 14.5664 12.9333 16.1334 12.9333C17.7004 12.9333 19.184 12.3493 20.2667 11.2666M12 3C13.0828 1.91728 14.5664 1.33333 16.1334 1.33333C17.7004 1.33333 19.184 1.91728 20.2667 3M12 3L12 22.6667M20.2667 11.2666C21.3494 10.1839 21.9334 8.70029 21.9334 7.13329C21.9334 5.5663 21.3494 4.08272 20.2667 3M20.2667 3L1.33337 22.6667" stroke="#29BB89" stroke-width="2" stroke-linecap="round" stroke-linejoin="round"/>
</svg>

<svg xmlns="http://www.w3.org/2000/svg" width="24" height="24" fill="none"><path stroke="#29BB89" stroke-linecap="round" stroke-linejoin="round" stroke-width="2" d="M12 3c-1.083 1.083-1.667 2.566-1.667 4.133s.584 3.05 1.667 4.134c1.083 1.082 2.566 1.666 4.133 1.666s3.051-.584 4.134-1.666M12 3c1.083-1.083 2.566-1.667 4.133-1.667s3.051.584 4.134 1.667M12 3v19.667m8.267-11.4c1.082-1.083 1.666-2.567 1.666-4.134S21.35 4.083 20.267 3m0 0L1.333 22.667"/></svg>
